Numix-GalliumOS/32/actions/mail-encrypted.svg

<?xml version="1.0" encoding="UTF-8" standalone="no"?>
<svg
   xmlns:dc="http://purl.org/dc/elements/1.1/"
   xmlns:cc="http://creativecommons.org/ns#"
   xmlns:rdf="http://www.w3.org/1999/02/22-rdf-syntax-ns#"
   xmlns:svg="http://www.w3.org/2000/svg"
   xmlns="http://www.w3.org/2000/svg"
   xmlns:sodipodi="http://sodipodi.sourceforge.net/DTD/sodipodi-0.dtd"
   xmlns:inkscape="http://www.inkscape.org/namespaces/inkscape"
   width="32"
   height="32"
   viewBox="0 0 32 32"
   id="svg2"
   version="1.1"
   inkscape:version="0.91 r13725"
   sodipodi:docname="mail-encrypted.svg">
  <metadata
     id="metadata18">
    <rdf:RDF>
      <cc:Work
         rdf:about="">
        <dc:format>image/svg+xml</dc:format>
        <dc:type
           rdf:resource="http://purl.org/dc/dcmitype/StillImage" />
        <dc:title></dc:title>
      </cc:Work>
    </rdf:RDF>
  </metadata>
  <defs
     id="defs16" />
  <sodipodi:namedview
     pagecolor="#ffffff"
     bordercolor="#666666"
     borderopacity="1"
     objecttolerance="10"
     gridtolerance="10"
     guidetolerance="10"
     inkscape:pageopacity="0"
     inkscape:pageshadow="2"
     inkscape:window-width="1366"
     inkscape:window-height="704"
     id="namedview14"
     showgrid="false"
     inkscape:zoom="1"
     inkscape:cx="19.222204"
     inkscape:cy="3.1167274"
     inkscape:window-x="0"
     inkscape:window-y="27"
     inkscape:window-maximized="1"
     inkscape:current-layer="svg2">
    <inkscape:grid
       type="xygrid"
       id="grid4156" />
  </sodipodi:namedview>
  <path
     style="fill:#268bd2"
     d="M 2 8 C 0 8 0 8 0 10 L 0 30 C 0 32 0 32 2 32 L 30 32 C 32 32 32 32 32 30 C 32 23.5625 32 13.71875 32 10 C 32 8 32 8 30 8 Z "
     id="path4" />
  <g
     style="fill-opacity:.102"
     id="g6">
    <path
       style="fill:#fff"
       d="M 0.875 8.015625 C 0.03125 8.109375 0 8.511719 0 10.011719 L 16 20 L 32 10.011719 C 32 8.015625 32 8.015625 30 8.015625 L 2 8.015625 C 1.5 8.015625 1.15625 7.984375 0.875 8.015625 Z "
       id="path8" />
    <path
       style="fill:#000"
       d="M 32 10 L 16 20 L 32 30 Z "
       id="path10" />
  </g>
  <g
     id="g4152"
     transform="matrix(0.5,0,0,0.5,15,16)">
    <path
       id="path4142"
       d="m 16,0 c 0,0 10,0.0195312 10.011719,7.09375 l 0,6.109375 c 0,0 3.988281,0 3.988281,1.605469 l 0,14.644531 C 30,30.800781 28.570312,32 27,32 L 5,32 C 3.429688,32 2,30.800781 2,29.453125 L 2,14.808594 C 2,13.203125 6.042969,13.191406 6.042969,13.191406 L 5.917969,7.09375 C 6,0.0078125 16,0 16,0 Z m 0,3.550781 c 0,0 -6,0 -6,5.3125 l 0,4.339844 12,0 0,-4.339844 c 0,-5.3125 -6,-5.3125 -6,-5.3125 z"
       style="fill:#dc322f;fill-opacity:1"
       inkscape:connector-curvature="0" />
    <path
       id="path4144"
       d="m 16,18 c -2.210938,0 -4,1.789062 -4,4 0,1.480469 0.804688,2.746094 2,3.4375 L 14,30 l 4,0 0,-4.5625 C 19.195312,24.746094 20,23.480469 20,22 20,19.789062 18.210938,18 16,18 Z"
       style="fill:#000000;fill-opacity:0.10199998;fill-rule:evenodd"
       inkscape:connector-curvature="0" />
  </g>
</svg>

<svg xmlns="http://www.w3.org/2000/svg" viewBox="0 0 32 32">
 <path d="m 2 8 c -2 0 -2 0 -2 2 l 0 20 c 0 2 0 2 2 2 l 28 0 c 2 0 2 0 2 -2 c 0 -6.438 0 -16.281 0 -20 c 0 -2 0 -2 -2 -2 Z" style="fill:#268bd2"/>
 <g style="fill-opacity:0.102">
  <path d="m 0.875 8.02 c -0.844 0.094 -0.875 0.496 -0.875 1.996 l 16 9.988 l 16 -9.988 c 0 -1.996 0 -1.996 -2 -1.996 l -28 0 c -0.5 0 -0.844 -0.031 -1.125 0 Z" style="fill:#fff"/>
  <path d="m 32 10 l -16 10 l 16 10 Z" style="fill:#000"/>
 </g>
 <g transform="matrix(0.5,0,0,0.5,15,16)">
  <path d="m 16 0 c 0 0 10 0.02 10.01 7.094 l 0 6.109 c 0 0 3.988 0 3.988 1.605 l 0 14.645 c 0 1.348 -1.43 2.547 -3 2.547 l -22 0 c -1.57 0 -3 -1.199 -3 -2.547 l 0 -14.645 c 0 -1.605 4.04 -1.617 4.04 -1.617 l -0.125 -6.098 c 0.082 -7.086 10.08 -7.094 10.08 -7.094 m 0 3.551 c 0 0 -6 0 -6 5.313 l 0 4.34 12 0 0 -4.34 c 0 -5.313 -6 -5.313 -6 -5.313 z" style="fill:#dc322f;fill-opacity:1"/>
  <path d="m 16 18 c -2.211 0 -4 1.789 -4 4 0 1.48 0.805 2.746 2 3.438 l 0 4.563 l 4 0 0 -4.563 c 1.195 -0.691 2 -1.957 2 -3.438 0 -2.211 -1.789 -4 -4 -4" style="fill:#000;fill-opacity:0.102;fill-rule:evenodd"/>
 </g>
</svg>
